public/assets/icons/home.svg

<svg xmlns="http://www.w3.org/2000/svg" width="19" height="17" viewBox="0 0 19 17" fill="none">
<g clip-path="url(#clip0_17_24)">
<path d="M18.9171 7.30102L10.2457 0.264952C10.035 0.0927557 9.77185 -0.00123024 9.50042 -0.00123024C9.229 -0.00123024 8.96583 0.0927557 8.7551 0.264952L0.0837115 7.30102C0.060804 7.31944 0.0417585 7.34225 0.0276807 7.36813C0.0136029 7.39401 0.00477327 7.42245 0.00170444 7.4518C-0.00136439 7.48114 0.00138873 7.51081 0.00980395 7.53908C0.0182192 7.56734 0.0321288 7.59364 0.0507254 7.61645L0.519128 8.19751C0.537742 8.22064 0.560703 8.23984 0.586698 8.25403C0.612693 8.26822 0.641212 8.27711 0.670623 8.28019C0.700034 8.28328 0.729761 8.28049 0.758103 8.272C0.786444 8.26351 0.812845 8.24948 0.835795 8.23071L2.11137 7.19511V16.4681C2.11137 16.609 2.16697 16.7441 2.26595 16.8437C2.36493 16.9434 2.49917 16.9993 2.63915 16.9993H16.3614C16.5013 16.9993 16.6356 16.9434 16.7346 16.8437C16.8335 16.7441 16.8891 16.609 16.8891 16.4681V7.19843L18.169 8.23735C18.2154 8.27518 18.2748 8.29292 18.3342 8.2867C18.3935 8.28047 18.448 8.25078 18.4857 8.20415L18.9538 7.6231C18.9894 7.57477 19.0055 7.51459 18.9987 7.45478C18.9919 7.39496 18.9627 7.33999 18.9171 7.30102ZM7.91692 15.9368V10.6243H11.0836V15.9368H7.91692ZM15.8336 15.9368H12.1391V10.0931C12.1391 9.95218 12.0835 9.81705 11.9846 9.71743C11.8856 9.6178 11.7513 9.56183 11.6114 9.56183H7.38915C7.24917 9.56183 7.11493 9.6178 7.01595 9.71743C6.91697 9.81705 6.86137 9.95218 6.86137 10.0931V15.9368H3.16692V6.33847L9.35875 1.31151C9.39783 1.27931 9.44678 1.26171 9.49729 1.26171C9.5478 1.26171 9.59675 1.27931 9.63583 1.31151L15.8336 6.34112V15.9368Z" fill="black"/>
</g>
<defs>
<clipPath id="clip0_17_24">
<rect width="19" height="17" fill="white"/>
</clipPath>
</defs>
</svg>

<svg xmlns="http://www.w3.org/2000/svg" fill="currentColor" viewBox="0 0 19 17">
  <g clip-path="url(#a)">
    <path fill="#000" d="M18.917 7.301 10.246.265a1.178 1.178 0 0 0-1.49 0L.083 7.301a.223.223 0 0 0-.033.315l.468.582a.225.225 0 0 0 .317.033L2.11 7.195v9.273A.533.533 0 0 0 2.64 17h13.722a.526.526 0 0 0 .528-.53v-9.27l1.28 1.038a.224.224 0 0 0 .317-.033l.468-.58a.239.239 0 0 0-.037-.323Zm-11 8.636v-5.313h3.167v5.313H7.917Zm7.917 0h-3.695v-5.844a.533.533 0 0 0-.528-.531H7.39a.526.526 0 0 0-.528.531v5.844H3.167V6.338l6.192-5.026a.218.218 0 0 1 .277 0l6.198 5.03v9.595Z"/>
  </g>
  <defs>
    <clipPath id="a">
      <path fill="#fff" d="M0 0h19v17H0z"/>
    </clipPath>
  </defs>
</svg>
